!! 00000] TT[WS
!!!OTL: Qinxuemei Shangfen
!!!ARE: Asia, China,ÿShanxi Qixian
!! Ethnic Group: Han
!! WI, 208 (1)
!!!SCT: J0245
!!!YEM: Copyright 1995, estate of Helmut Schaffrath.
**kern
*ICvox
*Ivox
*M4/4
*k[f#]
*G:
{8.ee
16dd
8b
8dd
2a
=1
8.ee
16dd
8b
8dd
4.a
8b}
=2
{4.g
8e
4.dd
8b
=3
8.a
16b
8d
8e
2g}
=4
{4b
8b
8dd
8ee
8gg
8ee
8dd
=5
8g
8a
8dd
8b
4.a
8b}
=6
{8d
8d
8d
8e
8.b
16a
8g
8f#
=7
8.e
16d
8e
8g
2d}
==
!!!AGN: Xiaodiao. Qingge, Aisu
!!!ONB: ESAC (Essen Associative Code) Database: CHINA
!!!AMT: simple quadruple
!!!AIN: vox
!!!EED: Helmut Schaffrath
!!!EEV: 1.0
*-
